X:1
T:This Is Like Heaven to Me
T:This Is Like Heaven to Me
T:J. E. French, 1903
T:J. E. F., 1903
T:PUBLIC DOMAIN
T:PUBLIC DOMAIN
C:J. E. French, 1903
Z:J. E. F., 1903
Z:PUBLIC DOMAIN
%%score ( 1 2 ) ( 3 4 )
L:1/8
Q:3/8=50
M:6/8
K:F
V:1 treble nm="Treble"
V:2 treble 
V:3 bass nm="Bass"
V:4 bass 
V:1
 F | [FA]3/2 [FA]/ [FA] [FA] [FB] [FA] | [FA] [EG]>[EG] [EG]2 C | %3
w: 1.~We|find man- y peo- ple who|can’t un- der- stand Why|
w: 2.~So|when we are hap- py we|sing and we shout; Some|
w: 3.~We’ve|heard the sweet mu- sic, the|heav- en- ly chord, From|
w: 4.~We’re|look- ing for Je- sus with|glo- ry to come; ’Tis|
 [EG]3/2 [EG]/ [EG] [EG] [FA] [GB] | [FA]3 [FA]2 | F | F [FA][Ac] [Ac]3/2 [GB]/[FA] | %7
w: we are so hap- py and|free. *|We’ve|crossed o- ver Jor- dan to|
w: don’t un- der- stand us, I|see. *|We’re|filled with the Spir- it, there|
w: glo- ry land o- ver the|sea; *|A|soul- thrill- ing mes- sage from|
w: Je- sus Who died on the|tree. *|A|cloud of bright an- gels to|
 [DG] [DF] [DF] [DF]2 [_DG] | [CA]3/2 [CF]/ [FA] [EG] [DF] [EG] | [CF]3 [CF]2 ||"^Refrain" [Ac] | %11
w: Ca- naan’s fair land, And|this is like Heav- en to|me. *|1\-3—|
w: is- n’t a doubt, And|this is like Heav- en to|me. *||
w: Je- sus, our Lord, And|this is like Heav- en to|me. *||
w: car- ry me home— Oh,|that will be Heav- en to|me. *||
 [Ac]3/2 [GB]/ [FA] [Ac]3/2 [GB]/ [FA] | [GB]3 [GB]2 [GB] | [GB]3/2 [FA]/ [EG] [GB]3/2 [FA]/ [EG] | %14
w: |||
w: |||
w: |||
w: |||
 [FA]3 [FA]2 | [Ac] | [Ac]3/2 [GB]/ [FA] [FA] [FB] [Fc] | [DB]3/2 [DF]/ [DF] [DF]2 [_DG] | %18
w: ||||
w: ||||
w: ||||
w: ||||
 [CA]3/2 [CF]/ [FA] [EG] [DF] [EG] | F3 F2 |] %20
w: ||
w: ||
w: ||
w: ||
V:2
 F | x6 | z3 z2 C | x6 | x5 | F | F z z z3 | x6 | x6 | x5 || x | x6 | x6 | x6 | x5 | x | x6 | x6 | %18
 x6 | C2 D C2 |] %20
V:3
 [F,A,] | [F,C]3/2 [F,C]/ [F,C] [F,C] [F,D] [F,C] | [C,C] [C,C]3/2 [C,C]/ [C,C]2 [C,C] | %3
w: |||
 [C,C]3/2 [C,C]/ [C,C] [C,C] [C,C] [C,C] | [F,C]3 [F,C]2 | [F,A,] | %6
w: |||
 [F,A,] [F,C] [F,C] [F,,C]3/2 [G,,C]/ [A,,C] | [B,,B,] [B,,B,] [B,,B,] [B,,B,]2 [B,,F,] | %8
w: ||
 [C,F,]3/2 [C,A,]/ [C,C] [C,B,] [C,B,] [C,B,] | [F,,A,]3 [F,,A,]2 || [F,C] | %11
w: ||Oh,|
 [F,C]3/2 [F,C]/ [F,C] [F,C]3/2 [F,C]/ [F,C] | [C,C]2 [G,C] [E,C]2 [C,C] | %13
w: this is like Heav- en to|me (to me), Yes,|
 [C,C]3/2 [C,C]/ [C,C] [C,C]3/2 [C,C]/ [C,C] | [F,C]2 [F,C] [F,C]2 | [F,C] | %16
w: this is like Heav- en to|me (to me);|I’ve|
 [F,C]3/2 [F,C]/[F,C] F, [F,G,][F,A,] | [B,,B,]3/2 [B,,B,]/ [B,,B,] [B,,B,]2 [B,,F,] | %18
w: crossed o- ver Jor- dan to|Ca- naan’s fair land, And|
 [C,F,]3/2 [C,A,]/ [C,C] [C,B,] [C,B,] [C,B,] | A,2 B, A,2 |] %20
w: this is like Heav- en to|me (to me).|
V:4
 x | x6 | x6 | x6 | x5 | x | x6 | x6 | x6 | x5 || x | x6 | x6 | x6 | x5 | x | z3 F, z z | x6 | x6 | %19
 F,,3 F,,2 |] %20

